.local/share/icons/Gruvbox-Plus-Dark/mimetypes/scalable/wps-office-ppt.svg

<svg width="256" height="256" viewBox="0 0 256 256" fill="none" xmlns="http://www.w3.org/2000/svg">
<g opacity="0.4" filter="url(#filter0_f)">
<path d="M55.0839 15.5636H155.608L216.009 75.7129L216.011 224.609C216.011 233.52 208.749 240.737 199.838 240.737H55.0838C46.1734 240.737 39 233.564 39 224.654V31.6474C39 22.737 46.1734 15.5636 55.0838 15.5636H55.0839Z" fill="#282828"/>
</g>
<path d="M55.0839 15H155.608L216.009 75.1493L216.011 224.045C216.011 232.956 208.749 240.174 199.838 240.174H55.0838C46.1734 240.174 39 233 39 224.09V31.0838C39 22.1734 46.1734 15 55.0838 15H55.0839Z" fill="#ebdbb2"/>
<path opacity="0.2" d="M199.838 240.174C208.749 240.174 216.011 232.956 216.011 224.046L216.01 186.5H39V224.09C39 233 46.1734 240.174 55.0838 240.174H199.838Z" fill="url(#paint0_linear)"/>
<path fill-rule="evenodd" clip-rule="evenodd" d="M155.608 20.3191H55.0839C49.1112 20.3191 44.3191 25.1111 44.3191 31.0838V224.09C44.3191 230.063 49.1111 234.855 55.0838 234.855H199.838C205.83 234.855 210.692 229.999 210.692 224.046V75.1493L155.608 20.3191ZM155.608 15H55.0839C46.1735 15 39 22.1734 39 31.0838V224.09C39 233 46.1734 240.174 55.0838 240.174H199.838C208.749 240.174 216.011 232.956 216.011 224.045L216.009 75.1493L155.608 15Z" fill="url(#paint1_linear)"/>
<path d="M102.086 221H105.686V213.05H110.816C115.856 213.05 117.866 209.51 117.866 206.51C117.866 203.3 116.036 200 110.816 200H102.086V221ZM110.996 209.63H105.686V203.42H110.996C113.456 203.42 114.146 205.19 114.146 206.51C114.146 207.98 113.306 209.63 110.996 209.63ZM121.158 221H124.758V213.05H129.888C134.928 213.05 136.938 209.51 136.938 206.51C136.938 203.3 135.108 200 129.888 200H121.158V221ZM130.068 209.63H124.758V203.42H130.068C132.528 203.42 133.218 205.19 133.218 206.51C133.218 207.98 132.378 209.63 130.068 209.63ZM148.304 203.45H154.274V200H138.734V203.45H144.704V221H148.304V203.45Z" fill="url(#paint2_linear)"/>
<path d="M128.197 58C110.137 61.1018 92.0654 65.2161 74.0053 68.2607C74.0053 94.7536 73.9933 121.257 74.0053 147.762C91.9719 150.795 109.948 154.842 127.878 158H133.26V58H128.197ZM101.021 89.4893C104.585 89.4161 108.004 89.9107 110.782 92.333C116.102 98.5589 114.696 110.012 106.807 113.738C104.004 115.118 100.794 114.929 97.7441 114.834C97.732 119.489 97.72 124.143 97.732 128.797C95.2876 128.595 92.8321 128.393 90.3876 128.203C90.2765 115.488 90.2506 103.35 90.3988 90.6357C93.8756 90.2179 97.458 89.5616 101.022 89.4893H101.021ZM100.611 96.3875C99.6385 96.3643 98.6441 96.4491 97.7311 96.4893C97.6941 100.489 97.6718 104.476 97.9311 108.464C100.388 108.179 103.573 108.418 104.98 105.964C106.153 103.561 106.226 100.487 104.819 98.1545C103.793 96.7777 102.231 96.4295 100.611 96.3875V96.3875ZM136.966 72.2857V84.1562C138.702 83.7964 140.587 83.1205 142.52 83.0089V99.0714H159.074C158.487 103.945 156.233 108.954 151.778 111.5C147.408 114.333 141.854 114.37 136.965 112.905C136.977 115.238 136.953 119.953 136.965 122.286H166.593V125.857H136.965V133H166.593V136.571H136.965V147.286H174V72.2857H136.965H136.966ZM146.222 80.8446C154.097 81.6304 160.608 87.925 161.466 95.5H146.222V80.8446Z" fill="url(#paint3_linear)"/>
<path opacity="0.25" d="M155.608 17V61.2306C155.608 70.141 162.867 77.1605 171.777 77.1605L216.009 77.1493V75.1493L155.608 17Z" fill="#282828"/>
<path d="M155.608 15V59.2306C155.608 68.141 162.867 75.1605 171.777 75.1605L216.009 75.1493L155.608 15Z" fill="url(#paint4_linear)"/>
<defs>
<filter id="filter0_f" x="23.8778" y="0.441412" width="207.255" height="255.418" filterUnits="userSpaceOnUse" color-interpolation-filters="sRGB">
<feFlood flood-opacity="0" result="BackgroundImageFix"/>
<feBlend mode="normal" in="SourceGraphic" in2="BackgroundImageFix" result="shape"/>
<feGaussianBlur stdDeviation="7.5611" result="effect1_foregroundBlur"/>
</filter>
<linearGradient id="paint0_linear" x1="127.506" y1="240.174" x2="127.506" y2="186.5" gradientUnits="userSpaceOnUse">
<stop offset="1e-07" stop-color="#fb4934"/>
<stop offset="1" stop-color="#fe8019"/>
</linearGradient>
<linearGradient id="paint1_linear" x1="127.506" y1="240.176" x2="127.506" y2="14.9981" gradientUnits="userSpaceOnUse">
<stop offset="1e-07" stop-color="#fb4934"/>
<stop offset="1" stop-color="#fe8019"/>
</linearGradient>
<linearGradient id="paint2_linear" x1="127.5" y1="240" x2="127.5" y2="192" gradientUnits="userSpaceOnUse">
<stop offset="1e-07" stop-color="#fb4934"/>
<stop offset="1" stop-color="#fe8019"/>
</linearGradient>
<linearGradient id="paint3_linear" x1="124" y1="158.001" x2="124" y2="57.9992" gradientUnits="userSpaceOnUse">
<stop offset="1e-07" stop-color="#fb4934"/>
<stop offset="1" stop-color="#fe8019"/>
</linearGradient>
<linearGradient id="paint4_linear" x1="185.808" y1="75.161" x2="185.808" y2="14.9995" gradientUnits="userSpaceOnUse">
<stop offset="1e-07" stop-color="#fb4934"/>
<stop offset="1" stop-color="#fe8019"/>
</linearGradient>
</defs>
</svg>

<svg width="256" height="256" fill="none" version="1.1" viewBox="0 0 256 256" xmlns="http://www.w3.org/2000/svg">
  <path d="m55.08 15h100.5l60.4 60.15 2e-3 148.9c0 8.911-7.262 16.13-16.17 16.13h-144.8c-8.91 0-16.08-7.174-16.08-16.08v-193c0-8.91 7.173-16.08 16.08-16.08h1e-4z" fill="#ebdbb2"/>
  <path d="m199.8 240.2c8.911 0 16.17-7.218 16.17-16.13l-1e-3 -37.55h-177v37.59c0 8.91 7.173 16.08 16.08 16.08h144.8z" fill="url(#paint0_linear)" opacity=".2"/>
  <path d="m155.6 20.32h-100.5c-5.973 0-10.76 4.792-10.76 10.76v193c0 5.973 4.792 10.76 10.76 10.76h144.8c5.992 0 10.85-4.856 10.85-10.81v-148.9l-55.08-54.83zm0-5.319h-100.5c-8.91 0-16.08 7.173-16.08 16.08v193c0 8.91 7.173 16.08 16.08 16.08h144.8c8.911 0 16.17-7.218 16.17-16.13l-2e-3 -148.9-60.4-60.15z" clip-rule="evenodd" fill="url(#paint1_linear)" fill-rule="evenodd"/>
  <path d="m102.1 221h3.6v-7.95h5.13c5.04 0 7.05-3.54 7.05-6.54 0-3.21-1.83-6.51-7.05-6.51h-8.73v21zm8.91-11.37h-5.31v-6.21h5.31c2.46 0 3.15 1.77 3.15 3.09 0 1.47-0.84 3.12-3.15 3.12zm10.16 11.37h3.6v-7.95h5.13c5.04 0 7.05-3.54 7.05-6.54 0-3.21-1.83-6.51-7.05-6.51h-8.73v21zm8.91-11.37h-5.31v-6.21h5.31c2.46 0 3.15 1.77 3.15 3.09 0 1.47-0.84 3.12-3.15 3.12zm18.24-6.18h5.97v-3.45h-15.54v3.45h5.97v17.55h3.6v-17.55z" fill="url(#paint2_linear)"/>
  <path d="m128.2 58c-18.06 3.102-36.13 7.216-54.19 10.26 0 26.49-0.012 53 0 79.5 17.97 3.033 35.94 7.08 53.87 10.24h5.382v-100h-5.063zm-27.18 31.49c3.564-0.0732 6.983 0.4214 9.761 2.844 5.32 6.226 3.914 17.68-3.975 21.4-2.803 1.38-6.013 1.191-9.063 1.096-0.0121 4.655-0.0241 9.309-0.0121 13.96-2.444-0.202-4.9-0.404-7.344-0.594-0.1111-12.72-0.137-24.85 0.0112-37.57 3.477-0.4178 7.059-1.074 10.62-1.146h-1e-3zm-0.41 6.898c-0.9725-0.0232-1.967 0.0616-2.88 0.1018-0.037 4-0.0593 7.987 0.2 11.97 2.457-0.285 5.642-0.046 7.049-2.5 1.173-2.403 1.246-5.477-0.161-7.81-1.026-1.377-2.588-1.725-4.208-1.767zm36.36-24.1v11.87c1.736-0.3598 3.621-1.036 5.554-1.147v16.06h16.55c-0.587 4.874-2.841 9.883-7.296 12.43-4.37 2.833-9.924 2.87-14.81 1.405 0.012 2.333-0.012 7.048 0 9.381h29.63v3.571h-29.63v7.143h29.63v3.571h-29.63v10.72h37.04v-75h-37.04 1e-3zm9.256 8.559c7.875 0.7858 14.39 7.08 15.24 14.66h-15.24v-14.66z" fill="url(#paint3_linear)"/>
  <path d="m155.6 17v44.23c0 8.91 7.259 15.93 16.17 15.93l44.23-0.0112v-2l-60.4-58.15z" fill="#282828" opacity=".25"/>
  <path d="m155.6 15v44.23c0 8.91 7.259 15.93 16.17 15.93l44.23-0.0112-60.4-60.15z" fill="url(#paint4_linear)"/>
  <defs>
    <linearGradient id="paint0_linear" x1="127.5" x2="127.5" y1="240.2" y2="186.5" gradientUnits="userSpaceOnUse">
      <stop stop-color="#fb4934" offset="1e-7"/>
      <stop stop-color="#fe8019" offset="1"/>
    </linearGradient>
    <linearGradient id="paint1_linear" x1="127.5" x2="127.5" y1="240.2" y2="15" gradientUnits="userSpaceOnUse">
      <stop stop-color="#fb4934" offset="1e-7"/>
      <stop stop-color="#fe8019" offset="1"/>
    </linearGradient>
    <linearGradient id="paint2_linear" x1="127.5" x2="127.5" y1="240" y2="192" gradientUnits="userSpaceOnUse">
      <stop stop-color="#fb4934" offset="1e-7"/>
      <stop stop-color="#fe8019" offset="1"/>
    </linearGradient>
    <linearGradient id="paint3_linear" x1="124" x2="124" y1="158" y2="58" gradientUnits="userSpaceOnUse">
      <stop stop-color="#fb4934" offset="1e-7"/>
      <stop stop-color="#fe8019" offset="1"/>
    </linearGradient>
    <linearGradient id="paint4_linear" x1="185.8" x2="185.8" y1="75.16" y2="15" gradientUnits="userSpaceOnUse">
      <stop stop-color="#fb4934" offset="1e-7"/>
      <stop stop-color="#fe8019" offset="1"/>
    </linearGradient>
  </defs>
</svg>
